packages/bezier-icons/icons/trophy.svg

<svg width="24" height="24" viewBox="0 0 24 24" fill="none" xmlns="http://www.w3.org/2000/svg">
<path fill-rule="evenodd" clip-rule="evenodd" d="M7 4H17V9C17 11.7614 14.7614 14 12 14C9.23858 14 7 11.7614 7 9V4ZM17.7453 13C16.8336 14.3071 15.4872 15.2885 13.9157 15.7346C14.4593 16.5004 15.3531 17 16.3636 17H16.5C16.7761 17 17 17.2239 17 17.5V21.5C17 21.7761 16.7761 22 16.5 22H7.5C7.22386 22 7 21.7761 7 21.5V17.5C7 17.2239 7.22386 17 7.5 17H7.63636C8.6469 17 9.54074 16.5004 10.0843 15.7346C8.5128 15.2885 7.16642 14.3071 6.25469 13H6C3.79086 13 2 11.2091 2 9V6C2 4.89543 2.89543 4 4 4L5 4C5 2.89543 5.89543 2 7 2H17C18.1046 2 19 2.89543 19 4H20C21.1046 4 22 4.89543 22 6V9C22 11.2091 20.2091 13 18 13H17.7453ZM5 6H4V9C4 9.83863 4.51616 10.5567 5.24812 10.8539C5.08637 10.2634 5 9.64179 5 9V6ZM18.7519 10.8539C19.4838 10.5567 20 9.83863 20 9V6H19V9C19 9.64179 18.9136 10.2634 18.7519 10.8539ZM9 18.8118V20H15V18.8118C13.7149 18.4483 12.6402 17.5839 12 16.4429C11.3598 17.5839 10.2851 18.4483 9 18.8118Z" fill="#313234"/>
</svg>

<svg xmlns="http://www.w3.org/2000/svg" width="24" height="24" fill="none" viewBox="0 0 24 24"><path fill="#313234" fill-rule="evenodd" d="M7 4h10v5A5 5 0 0 1 7 9zm10.745 9a7 7 0 0 1-3.83 2.735A3 3 0 0 0 16.365 17h.136a.5.5 0 0 1 .5.5v4a.5.5 0 0 1-.5.5h-9a.5.5 0 0 1-.5-.5v-4a.5.5 0 0 1 .5-.5h.136c1.01 0 1.905-.5 2.448-1.265A7 7 0 0 1 6.254 13H6a4 4 0 0 1-4-4V6a2 2 0 0 1 2-2h1a2 2 0 0 1 2-2h10a2 2 0 0 1 2 2h1a2 2 0 0 1 2 2v3a4 4 0 0 1-4 4zM5 6H4v3a2 2 0 0 0 1.248 1.854A7 7 0 0 1 5 9zm13.752 4.854A2 2 0 0 0 20 9V6h-1v3a7 7 0 0 1-.248 1.854M9 18.812V20h6v-1.188a5 5 0 0 1-3-2.37 5 5 0 0 1-3 2.37" clip-rule="evenodd"/></svg>
